static/img/step_3.svg

<svg fill="none" height="96" viewBox="0 0 96 96" width="96" xmlns="http://www.w3.org/2000/svg"><circle cx="48" cy="48" fill="#ffe9ce" fill-opacity=".5" r="48"/><path d="m51.436 49.968c1.536.432 2.7 1.176 3.492 2.232.792 1.032 1.188 2.34 1.188 3.924 0 2.208-.78 3.948-2.34 5.22-1.536 1.272-3.624 1.908-6.264 1.908-1.56 0-3.06-.252-4.5-.756-1.416-.504-2.616-1.2-3.6-2.088-.48-.384-.72-.864-.72-1.44 0-.432.12-.792.36-1.08.24-.312.528-.468.864-.468.36 0 .768.156 1.224.468 1.032.768 2.04 1.356 3.024 1.764 1.008.384 2.088.576 3.24.576 3.408 0 5.112-1.452 5.112-4.356 0-1.416-.456-2.472-1.368-3.168-.888-.72-2.244-1.08-4.068-1.08h-1.98c-.456 0-.816-.144-1.08-.432-.264-.312-.396-.672-.396-1.08 0-.384.132-.72.396-1.008.264-.312.624-.468 1.08-.468h1.404c1.752 0 3.084-.36 3.996-1.08.936-.744 1.404-1.824 1.404-3.24 0-1.248-.384-2.22-1.152-2.916-.744-.696-1.8-1.044-3.168-1.044-2.016 0-4.032.78-6.048 2.34-.456.312-.864.468-1.224.468-.336 0-.624-.144-.864-.432-.24-.312-.36-.684-.36-1.116 0-.576.24-1.056.72-1.44.984-.888 2.172-1.584 3.564-2.088 1.416-.504 2.868-.756 4.356-.756 2.376 0 4.272.6 5.688 1.8s2.112 2.808 2.088 4.824c0 1.392-.36 2.628-1.08 3.708-.72 1.056-1.716 1.824-2.988 2.304z" fill="#2ebfa5"/></svg>

<svg width="96" height="96" viewBox="0 0 96 96" fill="none" xmlns="http://www.w3.org/2000/svg">
<circle cx="48" cy="48" r="48" fill="#FFE9CE" fill-opacity="0.5"/>
<path d="M51.436 49.968C52.972 50.4 54.136 51.144 54.928 52.2C55.72 53.232 56.116 54.54 56.116 56.124C56.116 58.332 55.336 60.072 53.776 61.344C52.24 62.616 50.152 63.252 47.512 63.252C45.952 63.252 44.452 63 43.012 62.496C41.596 61.992 40.396 61.296 39.412 60.408C38.932 60.024 38.692 59.544 38.692 58.968C38.692 58.536 38.812 58.176 39.052 57.888C39.292 57.576 39.58 57.42 39.916 57.42C40.276 57.42 40.684 57.576 41.14 57.888C42.172 58.656 43.18 59.244 44.164 59.652C45.172 60.036 46.252 60.228 47.404 60.228C50.812 60.228 52.516 58.776 52.516 55.872C52.516 54.456 52.06 53.4 51.148 52.704C50.26 51.984 48.904 51.624 47.08 51.624H45.1C44.644 51.624 44.284 51.48 44.02 51.192C43.756 50.88 43.624 50.52 43.624 50.112C43.624 49.728 43.756 49.392 44.02 49.104C44.284 48.792 44.644 48.636 45.1 48.636H46.504C48.256 48.636 49.588 48.276 50.5 47.556C51.436 46.812 51.904 45.732 51.904 44.316C51.904 43.068 51.52 42.096 50.752 41.4C50.008 40.704 48.952 40.356 47.584 40.356C45.568 40.356 43.552 41.136 41.536 42.696C41.08 43.008 40.672 43.164 40.312 43.164C39.976 43.164 39.688 43.02 39.448 42.732C39.208 42.42 39.088 42.048 39.088 41.616C39.088 41.04 39.328 40.56 39.808 40.176C40.792 39.288 41.98 38.592 43.372 38.088C44.788 37.584 46.24 37.332 47.728 37.332C50.104 37.332 52 37.932 53.416 39.132C54.832 40.332 55.528 41.94 55.504 43.956C55.504 45.348 55.144 46.584 54.424 47.664C53.704 48.72 52.708 49.488 51.436 49.968Z" fill="#2EBFA5"/>
</svg>
